X: 1026
T:The Hautboy
M:2/2
L:1/8
S:Armitt MS
K:A major
F|EFAB c2 cA|d2 dBcA F2|EFAB c2 ec|A (BAB) cAA||g|agfe egaf|ecBA BAFg|ag
fe fgaf|edcB A2A2||
